X:1
T:Title
%%score { 1 | ( 2 3 ) }
L:1/8
Q:1/4=100
M:3/4
K:C
V:1 treble nm="Grand Piano"
V:2 bass 
V:3 bass 
V:1
 [cec']2 [eb]2 [Aea]2 | [Afa]2 [GBg]4 | [Bfb]2 [fa]2 [GBg]2 | [Ece]4 z2 | [Ece]2 [Fdf]2 [Geg]2 | %5
w: W.~A.~Post * *|||||
 [Afa]2 [Afa]4 | [A^fa]2 [Bfb]2 [cfc']2 | [dfd']4 z2 | [cec']2 [ec']2 [Aea]2 | [Afa]2 [GBg]4 | %10
w: |||||
 [Bfb]2 [fa]2 [GBg]2 | [Ece]4 z2 | [_B^c_b]2 [Aca]2 [Gcg]2 | [^Fc^f]2 [Aca]4 | %14
w: ||||
 [Bfb]2 [fc']2 [dfd']2 | [cec']4 z2 | [EGc][EGB] [EGd][Gd] [CEG][E^G] | [CFB]2 [CFA]4 | %18
w: ||||
 [Fc]2 [FB]4 | [C_EA]2 [C=EG]4 | [EG][EGA] [EGB][AB] [G_Bd][Be] | [FAf]2 [FA]4 | BG d2 e2 | %23
w: |||||
 [Ec]6 |] %24
w: |
V:2
 C,G,[K:treble] [CEB]2 G,2 | D,G,[K:treble] [DF]2 G,2 | G,,G,[K:treble] [DFA]2 G,2 | C,G, C2 G,2 | %4
 C,G, C2 G,2 | F,A, C2 A,2 | D,A, D2 A,2 | G,,G, A,G, F,D, | C,G,[K:treble] [CEB]2 G,2 | %9
 D,G,[K:treble] [DF]2 G,2 | G,,G,[K:treble] [DFA]2 G,2 | C,G, C2 G,2 | A,,E, ^C2 E,2 | %13
 D,A,[K:treble] [D^F]2 A,2 | D,G,[K:treble] [DFc]2 G,2 | C,G, C2 G,2 | C,G, z E z C | %17
 F,,C, F,2 D,2 | G,,D, G,2 D,2 | C,^F, G,2 E,2 | C,G, z E z G | F,A,[K:treble] D2 A,2 | %22
 [G,DF][G,B,F] [G,A,F]2 [G,B,F]2 | [C,G,C]6 |] %24
V:3
 x2[K:treble] x4 | x2[K:treble] x4 | x2[K:treble] x4 | x6 | x6 | x6 | x6 | x6 | x2[K:treble] x4 | %9
 x2[K:treble] x4 | x2[K:treble] x4 | x6 | x6 | x2[K:treble] x4 | x2[K:treble] x4 | x6 | z2 C2 C,2 | %17
 x6 | x6 | x6 | z2 C2 C,2 | x2[K:treble] x4 | x6 | x6 |] %24

